;FLAVOR:Marlin
;TIME:706
;Filament used: 3.25522m
;Layer height: 0.6
;MINX:74.511
;MINY:74.558
;MINZ:0.32
;MAXX:160.488
;MAXY:160.435
;MAXZ:24.92
;Generated with Cura_SteamEngine master
M140 S50
M105
M190 S50
M104 S200
M105
M109 S200
M82 ;absolute extrusion mode
; Ender 3 Custom Start G-code
G92 E0 ; Reset Extruder
G28 ; Home all axes
G1 Z2.0 F3000 ; Move Z Axis up little to prevent scratching of Heat Bed
G1 X0.1 Y20 Z0.3 F5000.0 ; Move to start position
G1 X0.1 Y200.0 Z0.3 F1500.0 E15 ; Draw the first line
G1 X0.4 Y200.0 Z0.3 F5000.0 ; Move to side a little
G1 X0.4 Y20 Z0.3 F1500.0 E30 ; Draw the second line
G92 E0 ; Reset Extruder
G1 Z2.0 F3000 ; Move Z Axis up little to prevent scratching of Heat Bed
G1 X5 Y20 Z0.3 F5000.0 ; Move over to prevent blob squish
G92 E0
G92 E0
G1 F2700 E-5
;LAYER_COUNT:42
;LAYER:0
M107
G0 F6000 X88.352 Y86.01 Z0.32
;TYPE:SKIRT
G1 F2700 E0
G1 F1200 X88.844 Y85.505 E0.07504
G1 X89.555 Y84.832 E0.17924
G1 X90.401 Y84.16 E0.29423
G1 X90.787 Y83.884 E0.34473
G1 X91.118 Y83.655 E0.38757
G1 X95.595 Y80.619 E0.9633
G1 X96.405 Y80.086 E1.0665
G1 X97.245 Y79.582 E1.17076
G1 X98.178 Y79.124 E1.28138
G1 X98.379 Y79.036 E1.30474
G1 X98.877 Y78.829 E1.36214
G1 X104.117 Y76.741 E1.96249
G1 X104.893 Y76.442 E2.051
G1 X105.821 Y76.128 E2.15527
G1 X106.817 Y75.882 E2.26446
G1 X107.064 Y75.832 E2.29128
G1 X107.412 Y75.766 E2.32898
G1 X107.759 Y75.707 E2.36644
G1 X113.376 Y74.787 E2.97224
G1 X114.047 Y74.687 E3.04444
G1 X115.021 Y74.582 E3.14871
G1 X116.047 Y74.558 E3.25794
G1 X116.307 Y74.563 E3.28562
G1 X116.621 Y74.573 E3.31905
G1 X116.99 Y74.591 E3.35837
G1 X122.608 Y74.897 E3.9572
G1 X123.357 Y74.949 E4.03711
G1 X124.331 Y75.056 E4.1414
G1 X125.409 Y75.271 E4.25839
G1 X125.811 Y75.373 E4.30253
G1 X126.214 Y75.481 E4.34694
G1 X131.669 Y76.997 E4.94953
G1 X132.323 Y77.188 E5.02205
G1 X133.251 Y77.501 E5.12628
G1 X133.759 Y77.709 E5.18471
G1 X134.272 Y77.945 E5.24481
G1 X134.462 Y78.038 E5.26732
G1 X134.804 Y78.212 E5.30816
G1 X140.038 Y80.986 E5.93863
G1 X140.62 Y81.304 E6.00922
G1 X141.459 Y81.808 E6.11339
G1 X142.345 Y82.447 E6.22965
G1 X142.557 Y82.615 E6.25844
G1 X142.994 Y82.974 E6.31864
G1 X147.247 Y86.586 E6.91251
G1 X147.903 Y87.159 E7.00522
G1 X148.613 Y87.834 E7.10948
G1 X149.327 Y88.639 E7.22401
G1 X149.628 Y89.015 E7.27527
G1 X149.829 Y89.274 E7.31016
G1 X153.304 Y93.848 E7.92154
G1 X153.694 Y94.376 E7.99141
G1 X153.926 Y94.701 E8.03391
G1 X154.451 Y95.529 E8.13825
G1 X154.805 Y96.188 E8.21787
G1 X154.982 Y96.548 E8.26057
G1 X155.151 Y96.904 E8.30251
G1 X157.542 Y102.077 E8.90905
G1 X157.829 Y102.721 E8.98409
G1 X158.191 Y103.632 E9.08843
G1 X158.494 Y104.635 E9.19995
G1 X158.552 Y104.862 E9.22488
G1 X158.622 Y105.149 E9.25632
G1 X158.699 Y105.485 E9.29301
G1 X159.895 Y110.92 E9.88531
G1 X160.063 Y111.734 E9.97377
G1 X160.262 Y113.102 E10.12091
G1 X160.298 Y113.547 E10.16842
G1 X160.327 Y114 E10.21674
G1 X160.452 Y116.322 E10.46423
G1 X160.48 Y117.017 E10.53826
G1 X160.488 Y117.697 E10.61064
G1 X160.478 Y118.123 E10.65599
G1 X160.452 Y118.702 E10.71768
G1 X160.328 Y120.981 E10.9606
G1 X160.278 Y121.693 E11.03656
G1 X160.118 Y122.973 E11.17386
G1 X160.081 Y123.179 E11.19613
G1 X160.011 Y123.539 E11.23517
G1 X159.934 Y123.901 E11.27456
G1 X158.702 Y129.496 E11.88431
G1 X158.542 Y130.169 E11.95794
G1 X158.198 Y131.344 E12.08824
G1 X157.909 Y132.097 E12.17409
G1 X157.829 Y132.286 E12.19593
G1 X157.582 Y132.839 E12.26039
G1 X155.237 Y137.91 E12.85503
G1 X154.86 Y138.694 E12.94762
G1 X154.399 Y139.558 E13.05184
G1 X153.83 Y140.435 E13.16311
G1 X153.556 Y140.817 E13.21314
G1 X153.341 Y141.106 E13.25148
G1 X149.884 Y145.651 E13.85925
G1 X149.471 Y146.181 E13.93076
G1 X148.838 Y146.928 E14.03497
G1 X148.094 Y147.67 E14.14681
G1 X147.923 Y147.826 E14.17144
G1 X147.712 Y148.014 E14.20152
G1 X147.425 Y148.262 E14.24189
G1 X143.078 Y151.952 E14.84877
G1 X142.532 Y152.403 E14.92414
G1 X141.752 Y152.995 E15.02836
G1 X140.828 Y153.579 E15.1447
G1 X140.619 Y153.698 E15.1703
G1 X140.169 Y153.944 E15.22488
G1 X135.069 Y156.648 E15.83926
G1 X134.43 Y156.975 E15.91566
G1 X133.54 Y157.385 E16.01995
G1 X132.521 Y157.752 E16.13523
G1 X132.034 Y157.9 E16.1894
G1 X131.735 Y157.985 E16.22248
G1 X126.272 Y159.502 E16.82592
G1 X125.588 Y159.683 E16.90123
G1 X124.631 Y159.894 E17.00553
G1 X123.518 Y160.04 E17.12501
G1 X123.011 Y160.08 E17.17913
G1 X122.715 Y160.098 E17.2107
G1 X117.023 Y160.406 E17.8174
G1 X116.309 Y160.435 E17.89345
G1 X115.329 Y160.435 E17.99776
G1 X114.307 Y160.349 E18.10691
G1 X114.087 Y160.321 E18.13052
G1 X113.752 Y160.274 E18.16652
G1 X113.409 Y160.22 E18.20348
G1 X108.008 Y159.334 E18.786
G1 X107.078 Y159.167 E18.88657
G1 X106.122 Y158.954 E18.99081
G1 X105.209 Y158.672 E19.09252
G1 X104.977 Y158.59 E19.1187
G1 X104.541 Y158.426 E19.16828
G1 X99.208 Y156.305 E19.77913
G1 X98.363 Y155.954 E19.87652
G1 X97.475 Y155.541 E19.98075
G1 X96.598 Y155.04 E20.08825
G1 X96.423 Y154.93 E20.11025
G1 X96.175 Y154.77 E20.14166
G1 X95.765 Y154.496 E20.19415
G1 X91.165 Y151.375 E20.78579
G1 X90.559 Y150.951 E20.8645
G1 X89.78 Y150.357 E20.96877
G1 X89.02 Y149.671 E21.07773
G1 X88.829 Y149.483 E21.10626
G1 X88.536 Y149.185 E21.15074
G1 X84.602 Y145.033 E21.7595
G1 X83.982 Y144.358 E21.85705
G1 X83.349 Y143.61 E21.96135
G1 X82.749 Y142.765 E22.07165
G1 X82.639 Y142.595 E22.0932
G1 X82.472 Y142.329 E22.12663
G1 X82.259 Y141.98 E22.17014
G1 X79.393 Y137.216 E22.76187
G1 X79.007 Y136.554 E22.84343
G1 X78.548 Y135.688 E22.94775
G1 X78.149 Y134.754 E23.05585
G1 X78.076 Y134.561 E23.07781
G1 X77.96 Y134.241 E23.11403
G1 X77.838 Y133.887 E23.15389
G1 X76.031 Y128.52 E23.75662
G1 X75.809 Y127.829 E23.83386
G1 X75.548 Y126.884 E23.93821
G1 X75.352 Y125.834 E24.05189
G1 X75.318 Y125.593 E24.0778
G1 X75.282 Y125.316 E24.10753
G1 X75.245 Y125.002 E24.14118
G1 X74.651 Y119.544 E24.72552
G1 X74.563 Y118.617 E24.82462
G1 X74.511 Y117.639 E24.92886
G1 X74.544 Y116.593 E25.04024
G1 X74.56 Y116.38 E25.06298
G1 X74.589 Y116.056 E25.0976
G1 X74.625 Y115.699 E25.13579
G1 X75.237 Y110.081 E25.73726
G1 X75.323 Y109.38 E25.81243
G1 X75.482 Y108.413 E25.91673
G1 X75.73 Y107.425 E26.02515
G1 X75.798 Y107.196 E26.05058
G1 X75.899 Y106.875 E26.08639
G1 X75.988 Y106.605 E26.11665
G1 X77.822 Y101.163 E26.72786
G1 X78.048 Y100.522 E26.8002
G1 X78.385 Y99.67 E26.89772
G1 X78.867 Y98.693 E27.01367
G1 X78.976 Y98.495 E27.03772
G1 X79.205 Y98.097 E27.0866
G1 X82.259 Y93.021 E27.71709
G1 X82.637 Y92.412 E27.79338
G1 X83.187 Y91.601 E27.89767
G1 X83.891 Y90.737 E28.01629
G1 X84.201 Y90.394 E28.0655
G1 X84.413 Y90.167 E28.09856
G1 X88.352 Y86.01 E28.70808
G0 F6000 X88.925 Y86.568
G1 F1200 X89.417 Y86.063 E28.78312
G1 X90.105 Y85.414 E28.88378
G1 X90.87 Y84.808 E28.98765
G1 X91.242 Y84.542 E29.03633
G1 X91.567 Y84.317 E29.0784
G1 X96.044 Y81.281 E29.65412
G1 X96.844 Y80.755 E29.75603
G1 X97.656 Y80.269 E29.85675
G1 X98.499 Y79.857 E29.95661
G1 X98.7 Y79.769 E29.97996
G1 X98.948 Y79.664 E30.00863
G1 X99.279 Y79.529 E30.04667
G1 X104.413 Y77.484 E30.63485
G1 X105.18 Y77.189 E30.72232
G1 X106.077 Y76.887 E30.82305
G1 X106.976 Y76.666 E30.92158
G1 X107.223 Y76.616 E30.9484
G1 X107.548 Y76.555 E30.9836
G1 X107.888 Y76.497 E31.02031
G1 X113.494 Y75.578 E31.62493
G1 X114.165 Y75.478 E31.69714
G1 X115.106 Y75.379 E31.79784
G1 X116.031 Y75.358 E31.89632
G1 X116.291 Y75.363 E31.924
G1 X116.585 Y75.373 E31.95531
G1 X116.947 Y75.389 E31.99387
G1 X122.384 Y75.684 E32.5734
G1 X123.302 Y75.747 E32.67133
G1 X124.242 Y75.852 E32.772
G1 X125.217 Y76.048 E32.87785
G1 X125.605 Y76.146 E32.92044
G1 X126 Y76.252 E32.96397
G1 X131.445 Y77.765 E33.56545
G1 X132.099 Y77.956 E33.63796
G1 X133.404 Y78.427 E33.78563
G1 X133.92 Y78.663 E33.84602
G1 X134.11 Y78.756 E33.86853
G1 X134.429 Y78.919 E33.90666
G1 X139.654 Y81.688 E34.53604
G1 X140.236 Y82.006 E34.60662
G1 X141.021 Y82.478 E34.70411
G1 X141.848 Y83.074 E34.81261
G1 X142.06 Y83.242 E34.8414
G1 X142.368 Y83.494 E34.88375
G1 X146.729 Y87.196 E35.49259
G1 X147.376 Y87.761 E35.58401
G1 X148.062 Y88.414 E35.68482
G1 X148.705 Y89.142 E35.78819
G1 X148.997 Y89.506 E35.83786
G1 X149.192 Y89.758 E35.87177
G1 X152.661 Y94.324 E36.48209
G1 X153.051 Y94.852 E36.55195
G1 X153.269 Y95.157 E36.59186
G1 X153.774 Y95.957 E36.69255
G1 X154.088 Y96.545 E36.76349
G1 X154.26 Y96.893 E36.80481
G1 X154.425 Y97.24 E36.8457
G1 X156.747 Y102.261 E37.43448
G1 X157.098 Y103.047 E37.5261
G1 X157.446 Y103.927 E37.62682
G1 X157.719 Y104.833 E37.72753
G1 X157.777 Y105.06 E37.75246
G1 X157.842 Y105.328 E37.78181
G1 X157.917 Y105.657 E37.81773
G1 X159.146 Y111.247 E38.42689
G1 X159.279 Y111.895 E38.4973
G1 X159.465 Y113.171 E38.63454
G1 X159.5 Y113.599 E38.68025
G1 X159.529 Y114.044 E38.72771
G1 X159.653 Y116.354 E38.97392
G1 X159.681 Y117.049 E39.04795
G1 X159.688 Y117.684 E39.11554
G1 X159.678 Y118.089 E39.15866
G1 X159.654 Y118.659 E39.21938
G1 X159.541 Y120.746 E39.44183
G1 X159.479 Y121.637 E39.53689
G1 X159.331 Y122.832 E39.66505
G1 X159.294 Y123.038 E39.68733
G1 X159.228 Y123.374 E39.72377
G1 X159.153 Y123.729 E39.76239
G1 X157.966 Y129.126 E40.35053
G1 X157.763 Y129.984 E40.44437
G1 X157.442 Y131.083 E40.56623
G1 X157.172 Y131.785 E40.64628
G1 X156.978 Y132.235 E40.69844
G1 X156.856 Y132.503 E40.72978
G1 X154.511 Y137.574 E41.32441
G1 X154.14 Y138.346 E41.41557
G1 X153.693 Y139.18 E41.51628
G1 X153.179 Y139.971 E41.61668
G1 X152.913 Y140.342 E41.66527
G1 X152.704 Y140.622 E41.70246
G1 X149.253 Y145.159 E42.30916
G1 X148.84 Y145.689 E42.38067
G1 X148.228 Y146.41 E42.48133
G1 X147.554 Y147.079 E42.5824
G1 X147.187 Y147.411 E42.63507
G1 X146.907 Y147.652 E42.67439
G1 X142.569 Y151.335 E43.28006
G1 X142.023 Y151.786 E43.35543
G1 X141.268 Y152.357 E43.45618
G1 X140.432 Y152.884 E43.56136
G1 X140.223 Y153.003 E43.58696
G1 X139.715 Y153.28 E43.64854
G1 X134.849 Y155.86 E44.23473
G1 X134.065 Y156.262 E44.32851
G1 X133.205 Y156.657 E44.42923
G1 X132.284 Y156.988 E44.53339
G1 X131.814 Y157.131 E44.58568
G1 X131.521 Y157.214 E44.61809
G1 X126.067 Y158.728 E45.22053
G1 X125.383 Y158.909 E45.29583
G1 X124.459 Y159.113 E45.39654
G1 X123.452 Y159.243 E45.50461
G1 X122.961 Y159.282 E45.55703
G1 X122.672 Y159.3 E45.58785
G1 X116.991 Y159.607 E46.19338
G1 X116.277 Y159.636 E46.26943
G1 X115.33 Y159.634 E46.37022
G1 X114.408 Y159.555 E46.46871
G1 X114.188 Y159.527 E46.49232
G1 X113.876 Y159.483 E46.52585
G1 X113.539 Y159.43 E46.56216
G1 X107.963 Y158.514 E47.16358
G1 X107.22 Y158.38 E47.24394
G1 X106.297 Y158.173 E47.34462
G1 X105.476 Y157.918 E47.43612
G1 X105.244 Y157.836 E47.46231
G1 X104.837 Y157.683 E47.50858
G1 X99.504 Y155.562 E48.11943
G1 X98.671 Y155.216 E48.21543
G1 X97.814 Y154.815 E48.31614
G1 X97.024 Y154.362 E48.41306
G1 X96.617 Y154.103 E48.46441
G1 X96.214 Y153.834 E48.51598
G1 X91.623 Y150.72 E49.1064
G1 X91.017 Y150.296 E49.18512
G1 X90.265 Y149.721 E49.28588
G1 X89.581 Y149.101 E49.38413
G1 X89.39 Y148.913 E49.41266
G1 X89.117 Y148.634 E49.4542
G1 X85.06 Y144.351 E50.08209
G1 X84.571 Y143.818 E50.15908
G1 X83.961 Y143.094 E50.25984
G1 X83.421 Y142.33 E50.35942
G1 X83.311 Y142.16 E50.38097
G1 X83.155 Y141.912 E50.41215
G1 X82.944 Y141.567 E50.45519
G1 X80.084 Y136.813 E51.04568
G1 X79.698 Y136.151 E51.12724
G1 X79.256 Y135.314 E51.22798
G1 X78.897 Y134.471 E51.3255
G1 X78.824 Y134.278 E51.34746
G1 X78.716 Y133.98 E51.3812
G1 X78.596 Y133.631 E51.42048
G1 X76.793 Y128.275 E52.02196
G1 X76.571 Y127.584 E52.09921
G1 X76.32 Y126.671 E52.19999
G1 X76.144 Y125.723 E52.30261
G1 X76.076 Y125.223 E52.35631
G1 X76.041 Y124.916 E52.3892
G1 X75.43 Y119.296 E52.99088
G1 X75.359 Y118.542 E53.07148
G1 X75.31 Y117.597 E53.17219
G1 X75.341 Y116.653 E53.27272
G1 X75.357 Y116.44 E53.29546
G1 X75.384 Y116.137 E53.32783
G1 X76.014 Y110.331 E53.94941
G1 X76.031 Y110.178 E53.96579
G1 X76.117 Y109.477 E54.04096
G1 X76.272 Y108.544 E54.14162
G1 X76.497 Y107.653 E54.23943
G1 X76.565 Y107.424 E54.26485
G1 X76.659 Y107.124 E54.29831
G1 X76.746 Y106.86 E54.3279
G1 X78.576 Y101.429 E54.93787
G1 X78.802 Y100.788 E55.01021
G1 X79.118 Y99.991 E55.10146
G1 X79.567 Y99.079 E55.20965
G1 X79.676 Y98.881 E55.2337
G1 X79.89 Y98.509 E55.27938
G1 X82.857 Y93.576 E55.89206
G1 X83.317 Y92.834 E55.98498
G1 X83.85 Y92.051 E56.08579
G1 X84.488 Y91.271 E56.19304
G1 X84.788 Y90.938 E56.24075
G1 X84.994 Y90.717 E56.2729
G1 X88.925 Y86.568 E56.88122
G0 F6000 X89.498 Y87.127
G1 F1200 X89.99 Y86.622 E56.95626
G1 X90.654 Y85.997 E57.05331
G1 X91.339 Y85.456 E57.14621
G1 X91.697 Y85.2 E57.19305
G1 X92.016 Y84.979 E57.23436
G1 X96.622 Y81.857 E57.82659
G1 X97.283 Y81.423 E57.91075
G1 X98.066 Y80.957 E58.00773
G1 X98.82 Y80.59 E58.09698
G1 X99.251 Y80.405 E58.1469
G1 X99.575 Y80.272 E58.18417
G1 X104.827 Y78.181 E58.78583
G1 X105.467 Y77.935 E58.85881
G1 X106.331 Y77.646 E58.95577
G1 X107.135 Y77.45 E59.04385
G1 X107.382 Y77.4 E59.07067
G1 X107.683 Y77.343 E59.10328
G1 X108.018 Y77.286 E59.13944
G1 X113.462 Y76.393 E59.72661
G1 X114.283 Y76.27 E59.81496
G1 X115.19 Y76.175 E59.91202
G1 X116.016 Y76.158 E59.99996
G1 X116.276 Y76.163 E60.02763
G1 X116.548 Y76.172 E60.0566
G1 X116.903 Y76.188 E60.09442
G1 X122.34 Y76.483 E60.67395
G1 X123.246 Y76.545 E60.7706
G1 X124.152 Y76.648 E60.86765
G1 X125.024 Y76.825 E60.96235
G1 X125.399 Y76.919 E61.0035
G1 X125.785 Y77.022 E61.04602
G1 X131.221 Y78.533 E61.64652
G1 X131.875 Y78.724 E61.71903
G1 X133.087 Y79.161 E61.85616
G1 X133.568 Y79.382 E61.9125
G1 X133.758 Y79.475 E61.93501
G1 X134.055 Y79.626 E61.97047
G1 X139.271 Y82.39 E62.59875
G1 X139.853 Y82.708 E62.66934
G1 X140.583 Y83.148 E62.76006
G1 X141.351 Y83.701 E62.86078
G1 X141.736 Y84.009 E62.91326
G1 X141.958 Y84.194 E62.94401
G1 X146.329 Y87.907 E63.55442
G1 X146.85 Y88.363 E63.62811
G1 X147.509 Y88.993 E63.72515
G1 X148.083 Y89.645 E63.8176
G1 X148.365 Y89.997 E63.8656
G1 X148.555 Y90.242 E63.8986
G1 X152.017 Y94.799 E64.50771
G1 X152.407 Y95.327 E64.57757
G1 X152.611 Y95.612 E64.61487
G1 X153.097 Y96.384 E64.71196
G1 X153.372 Y96.901 E64.77429
G1 X153.538 Y97.238 E64.81427
G1 X153.698 Y97.576 E64.85407
G1 X156.08 Y102.729 E65.45828
G1 X156.367 Y103.373 E65.53332
G1 X156.702 Y104.221 E65.63037
G1 X156.944 Y105.031 E65.72034
G1 X157.063 Y105.507 E65.77256
G1 X157.136 Y105.829 E65.8077
G1 X158.363 Y111.408 E66.41568
G1 X158.496 Y112.056 E66.48609
G1 X158.668 Y113.241 E66.61353
G1 X158.702 Y113.651 E66.65732
G1 X158.73 Y114.087 E66.70382
G1 X158.854 Y116.386 E66.94886
G1 X158.882 Y117.081 E67.02289
G1 X158.889 Y117.67 E67.08559
G1 X158.879 Y118.056 E67.12668
G1 X158.855 Y118.615 E67.18623
G1 X158.742 Y120.702 E67.40868
G1 X158.681 Y121.581 E67.50246
G1 X158.543 Y122.691 E67.62151
G1 X158.506 Y122.897 E67.64379
G1 X158.445 Y123.208 E67.67752
G1 X158.371 Y123.557 E67.71549
G1 X157.145 Y129.125 E68.3223
G1 X156.985 Y129.798 E68.39593
G1 X156.686 Y130.821 E68.50936
G1 X156.435 Y131.473 E68.58372
G1 X156.355 Y131.662 E68.60556
G1 X156.249 Y131.904 E68.63368
G1 X156.13 Y132.167 E68.66441
G1 X153.785 Y137.238 E69.25904
G1 X153.419 Y137.999 E69.34892
G1 X152.987 Y138.802 E69.44596
G1 X152.527 Y139.507 E69.53556
G1 X152.27 Y139.866 E69.58255
G1 X152.068 Y140.138 E69.61861
G1 X148.698 Y144.57 E70.21119
G1 X148.209 Y145.197 E70.29582
G1 X147.618 Y145.892 E70.39292
G1 X147.015 Y146.488 E70.48316
G1 X146.661 Y146.807 E70.53388
G1 X146.39 Y147.043 E70.57213
G1 X142.168 Y150.628 E71.16163
G1 X141.513 Y151.169 E71.25204
G1 X140.785 Y151.719 E71.34915
G1 X140.036 Y152.189 E71.44327
G1 X139.622 Y152.421 E71.49378
G1 X139.34 Y152.573 E71.52787
G1 X134.34 Y155.223 E72.13016
G1 X133.701 Y155.55 E72.20655
G1 X132.872 Y155.93 E72.30361
G1 X132.047 Y156.224 E72.39683
G1 X131.595 Y156.362 E72.44713
G1 X131.306 Y156.444 E72.4791
G1 X125.862 Y157.955 E73.08043
G1 X125.178 Y158.136 E73.15573
G1 X124.288 Y158.33 E73.25268
G1 X123.385 Y158.446 E73.34958
G1 X123.122 Y158.468 E73.37767
G1 X122.628 Y158.501 E73.43036
G1 X117.099 Y158.801 E74.01969
G1 X116.244 Y158.836 E74.11077
G1 X115.332 Y158.833 E74.20784
G1 X114.509 Y158.762 E74.29576
G1 X114.289 Y158.734 E74.31936
G1 X113.999 Y158.693 E74.35053
G1 X113.668 Y158.641 E74.38619
G1 X108.105 Y157.727 E74.98621
G1 X107.362 Y157.593 E75.06657
